assets/icons/network/wired.svg

<?xml version="1.0" encoding="UTF-8" standalone="no"?>
<svg
   viewBox="0 0 24 24"
   height="24"
   width="24"
   version="1.1"
   id="svg10"
   sodipodi:docname="wired.svg"
   inkscape:version="1.2 (1:1.2.1+202207142221+cd75a1ee6d)"
   xmlns:inkscape="http://www.inkscape.org/namespaces/inkscape"
   xmlns:sodipodi="http://sodipodi.sourceforge.net/DTD/sodipodi-0.dtd"
   xmlns="http://www.w3.org/2000/svg"
   xmlns:svg="http://www.w3.org/2000/svg">
  <defs
     id="defs14" />
  <sodipodi:namedview
     id="namedview12"
     pagecolor="#ffffff"
     bordercolor="#666666"
     borderopacity="1.0"
     inkscape:pageshadow="2"
     inkscape:pageopacity="0.0"
     inkscape:pagecheckerboard="0"
     showgrid="true"
     inkscape:snap-page="true"
     inkscape:zoom="35.222757"
     inkscape:cx="14.394103"
     inkscape:cy="11.9525"
     inkscape:window-width="1920"
     inkscape:window-height="1043"
     inkscape:window-x="0"
     inkscape:window-y="0"
     inkscape:window-maximized="1"
     inkscape:current-layer="svg10"
     inkscape:showpageshadow="2"
     inkscape:deskcolor="#d1d1d1">
    <inkscape:grid
       type="xygrid"
       id="grid1024" />
    <inkscape:grid
       type="xygrid"
       id="grid895"
       dotted="true"
       spacingx="0.5"
       spacingy="0.5"
       empspacing="10" />
  </sodipodi:namedview>
  <path
     id="rect869"
     style="fill:#808080;fill-opacity:1;fill-rule:evenodd;stroke-width:0.5;stroke-linecap:round;stroke-linejoin:round"
     d="M 9 3 C 8.4546502 3 8 3.4546502 8 4 L 8 7 C 8 7.5453498 8.4546502 8 9 8 L 11 8 L 11 11 L 7.5 11 C 6.694446 11 6.0379048 11.130064 5.5839844 11.583984 C 5.1300639 12.037905 5 12.694446 5 13.5 L 5 15 L 3 15 C 2.4546502 15 2 15.454651 2 16 L 2 19 C 2 19.545349 2.4546502 20 3 20 L 8 20 C 8.5453498 20 9 19.545349 9 19 L 9 16 C 9 15.454651 8.5453498 15 8 15 L 6 15 L 6 13.5 C 6 12.805557 6.1199374 12.462093 6.2910156 12.291016 C 6.462094 12.119937 6.805557 12 7.5 12 L 15.5 12 C 16.194443 12 16.537907 12.119937 16.708984 12.291016 C 16.880063 12.462093 17 12.805557 17 13.5 L 17 15 L 15 15 C 14.454651 15 14 15.454651 14 16 L 14 19 C 14 19.545349 14.454651 20 15 20 L 20 20 C 20.545349 20 21 19.545349 21 19 L 21 16 C 21 15.454651 20.545349 15 20 15 L 18 15 L 18 13.5 C 18 12.694446 17.869936 12.037905 17.416016 11.583984 C 16.962095 11.130064 16.305554 11 15.5 11 L 12 11 L 12 8 L 14 8 C 14.545349 8 15 7.5453498 15 7 L 15 4 C 15 3.4546502 14.545349 3 14 3 L 9 3 z M 9 4 L 14 4 L 14 7 L 9 7 L 9 4 z M 3 16 L 8 16 L 8 19 L 3 19 L 3 16 z M 15 16 L 20 16 L 20 19 L 15 19 L 15 16 z " />
</svg>

<svg height="24" width="24" xmlns="http://www.w3.org/2000/svg"><path style="fill:gray;fill-opacity:1;stroke-width:.5;stroke-linecap:round;stroke-linejoin:round" d="M9 3c-.545 0-1 .455-1 1v3c0 .545.455 1 1 1h2v3H7.5c-.806 0-1.462.13-1.916.584C5.13 12.038 5 12.694 5 13.5V15H3c-.545 0-1 .455-1 1v3c0 .545.455 1 1 1h5c.545 0 1-.455 1-1v-3c0-.545-.455-1-1-1H6v-1.5c0-.694.12-1.038.291-1.209C6.462 12.12 6.806 12 7.5 12h8c.694 0 1.038.12 1.209.291.171.171.291.515.291 1.209V15h-2c-.545 0-1 .455-1 1v3c0 .545.455 1 1 1h5c.545 0 1-.455 1-1v-3c0-.545-.455-1-1-1h-2v-1.5c0-.806-.13-1.462-.584-1.916-.454-.454-1.11-.584-1.916-.584H12V8h2c.545 0 1-.455 1-1V4c0-.545-.455-1-1-1H9zm0 1h5v3H9V4zM3 16h5v3H3v-3zm12 0h5v3h-5v-3z"/></svg>
